src/assets/linkedin.svg

<svg width="24" height="24" version="1.1" viewBox="0 0 24 24" xml:space="preserve" xmlns="http://www.w3.org/2000/svg"><g transform="scale(.48336)"><path d="m29.35 21.298c-2.125 0-3.074 1.168-3.605 1.988v-1.704h-4.002c0.052 1.128 0 12.041 0 12.041h4.002v-6.727c0-0.359 0.023-0.72 0.131-0.977 0.29-0.72 0.948-1.465 2.054-1.465 1.448 0 2.027 1.104 2.027 2.724v6.442h4.003v-6.905c-2e-3 -3.696-1.977-5.417-4.61-5.417zm-3.608 2.03h-0.025c8e-3 -0.014 0.02-0.027 0.025-0.041z"/><rect x="15.523" y="21.582" width="4.002" height="12.041"/><path d="m24.826 0c-13.689 0-24.826 11.137-24.826 24.826 0 13.688 11.137 24.826 24.826 24.826 13.688 0 24.826-11.138 24.826-24.826 0-13.689-11.136-24.826-24.826-24.826zm13.165 36.055c0 1.056-0.876 1.91-1.959 1.91h-22.581c-1.08 0-1.957-0.854-1.957-1.91v-22.844c0-1.055 0.877-1.91 1.957-1.91h22.581c1.082 0 1.959 0.856 1.959 1.91z"/><path d="m17.551 15.777c-1.368 0-2.264 0.898-2.264 2.08 0 1.155 0.869 2.08 2.211 2.08h0.026c1.396 0 2.265-0.925 2.265-2.08-0.027-1.181-0.868-2.08-2.238-2.08z"/></g></svg>

<?xml version="1.0" encoding="iso-8859-1"?>
<!-- Generator: Adobe Illustrator 16.0.0, SVG Export Plug-In . SVG Version: 6.00 Build 0)  -->
<!DOCTYPE svg PUBLIC "-//W3C//DTD SVG 1.1//EN" "http://www.w3.org/Graphics/SVG/1.1/DTD/svg11.dtd">
<svg version="1.1" id="Capa_1" xmlns="http://www.w3.org/2000/svg" xmlns:xlink="http://www.w3.org/1999/xlink" x="0px" y="0px"
	 width="49.652px" height="49.652px" viewBox="0 0 49.652 49.652" style="enable-background:new 0 0 49.652 49.652;"
	 xml:space="preserve">
<g>
	<g>
		<g>
			<path d="M29.35,21.298c-2.125,0-3.074,1.168-3.605,1.988v-1.704h-4.002c0.052,1.128,0,12.041,0,12.041h4.002v-6.727
				c0-0.359,0.023-0.72,0.131-0.977c0.29-0.72,0.948-1.465,2.054-1.465c1.448,0,2.027,1.104,2.027,2.724v6.442h4.002h0.001v-6.905
				C33.958,23.019,31.983,21.298,29.35,21.298z M25.742,23.328h-0.025c0.008-0.014,0.02-0.027,0.025-0.041V23.328z"/>
			<rect x="15.523" y="21.582" width="4.002" height="12.041"/>
			<path d="M24.826,0C11.137,0,0,11.137,0,24.826c0,13.688,11.137,24.826,24.826,24.826c13.688,0,24.826-11.138,24.826-24.826
				C49.652,11.137,38.516,0,24.826,0z M37.991,36.055c0,1.056-0.876,1.91-1.959,1.91H13.451c-1.08,0-1.957-0.854-1.957-1.91V13.211
				c0-1.055,0.877-1.91,1.957-1.91h22.581c1.082,0,1.959,0.856,1.959,1.91V36.055z"/>
			<path d="M17.551,15.777c-1.368,0-2.264,0.898-2.264,2.08c0,1.155,0.869,2.08,2.211,2.08h0.026c1.396,0,2.265-0.925,2.265-2.08
				C19.762,16.676,18.921,15.777,17.551,15.777z"/>
		</g>
	</g>
</g>
<g>
</g>
<g>
</g>
<g>
</g>
<g>
</g>
<g>
</g>
<g>
</g>
<g>
</g>
<g>
</g>
<g>
</g>
<g>
</g>
<g>
</g>
<g>
</g>
<g>
</g>
<g>
</g>
<g>
</g>
</svg>
